!!!COM: Vivaldi, Antonio Lucio
!!!CDT: 1678/03/04-1741/08/28
!!!OPR: 12 sonatas for two violins and basso continuo
!!!OTL: Sonata in A major, op. @{OPS}, no. @{ONM} (@{SCT})
!!!OPS: 1
!!!ONM: 9
!!!OMV: 2. [Adagio]
!!!SCT: RV 75
!!!SCA: Antonio Vivaldi: Thematisch-systematisches Verzeichnis seiner Werke (Ryom-Verzeichnis)
!!!OMD: Adagio
!!!key: A
**kern	**fb	**kern	**kern
*part3	*	*part2	*part1
*staff3	*	*staff2	*staff1
*ICstr&ICklav	*	*ICstr	*ICstr
*Icello&Icemba	*	*Ivioln	*Ivioln
*	*	*I#2	*I#1
*I"Violoncello\nContinuo	*	*I"Violin 2	*I"Violin 1
*I'bc	*	*I'v2	*I'v1
*clefF4	*	*clefG2	*clefG2
*k[f#c#g#]	*	*k[f#c#g#]	*k[f#c#g#]
*A:	*	*A:	*A:
*M4/4	*	*M4/4	*M4/4
*met(c)	*	*met(c)	*met(c)
*MM34	*	*MM34	*MM34
=1	=1	=1	=1
8Gn\L	6	8b\L	8ee\L
8G\	.	8b\	8ee\
8G\	.	8b\	8ee\
8G\J	.	8b\J	8ee\J
8G#X\L	6#/	8b\L	8ee#X\L
8G#y\	.	8b\	8ee#y\
8G#y\	.	8b\	8ee#y\
8G#y\J	.	8b\J	8ee#y\J
=2	=2	=2	=2
4F#y\	.	4a/	8ff#y\L
.	.	.	(16ccc#y\L
.	.	.	16bb\JJ
4r	.	4r	16aa\LL
.	.	.	16gg#y\
.	.	.	16ff#y\
.	.	.	32gg#y\L
.	.	.	32aa\JJJ)
8F#y\L	6#/	8a/L	8dd#X\L
8F#y\	.	8a/	8dd#y\
8F#y\	.	8a/	8dd#y\
8F#y\J	.	8a/J	8dd#y\J
=3	=3	=3	=3
4E\	.	4g#y/	8ee\L
.	.	.	(16bb\L
.	.	.	16aa\JJ
4r	.	4r	16gg#X\LL
.	.	.	16ff#y\
.	.	.	16ee\
.	.	.	32ff#y\L
.	.	.	32ggn\JJJ)
8E\L	6 n	8gn/L	8cc#y\L
8E\	.	8g/	8cc#y\
8E\	.	8g/	8cc#y\
8E\J	.	8g/J	8cc#y\J
!!LO:LB:g=original
=4	=4	=4	=4
4D\	.	4f#y/	8dd\L
.	.	.	(16aa\L
.	.	.	16ff#y\JJ)
4r	.	4r	8ff#y\L
.	.	.	(16aa\L
.	.	.	16dd\JJ)
2r	.	8r	[2dd\
.	.	(16bb\LL	.
.	.	16ggn\JJ)	.
.	.	8gg\L	.
.	.	(16bb\L	.
.	.	16ee\JJ)	.
=5	=5	=5	=5
16r	.	2ee\	4dd\]
16E\LL	7	.	.
16F#y\	.	.	.
16Gn\JJ	.	.	.
16A\LL	3	.	2cc#y\
16AA\	.	.	.
16A\	.	.	.
16G\JJ	.	.	.
16F#y\LL	6 5	2dd\	.
16D\	.	.	.
16E\	.	.	.
16F#y\JJ	.	.	.
16Gn/LL	5	.	[4b\
16GGn/	.	.	.
16G/	.	.	.
16F#y/JJ	.	.	.
=6	=6	=6	=6
16E\LL	6 5	2cc#y\	4b\]
16C#y\	.	.	.
16D\	.	.	.
16E\JJ	.	.	.
16F#y/LL	.	.	2a/
16FF#y/	.	.	.
16F#y/	.	.	.
16E/JJ	.	.	.
16D/LL	6 5	2b\	.
16BB/	.	.	.
16C#y/	.	.	.
16D/JJ	.	.	.
16E/LL	.	.	4g#y/
16D/	.	.	.
16E/	.	.	.
16EE/JJ	.	.	.
=7	=7	=7	=7
1AA/;	.	1cc#y\;	1a/;
==	==	==	==
*-	*-	*-	*-
!!!SMS: RV 75 / Estienne Roger (No. 363), Amsterdam [facs.]
!!!ENC: Fran Bennion   rev. 05/14/21 E Correia
!!!END: 2004/10/26
!!!ONB: Converted from MuseData with musedata2hum on Sat May 11 12:01:56 2024
!!!YEM: (C) 2004, 2019 Center for Computer Assisted Research in the Humanities
!!!system-decoration: [(s1,s2,s3)]
!!!URL-info: https://wiki.ccarh.org/wiki/MuseData:_Antonio_Vivaldi#Op._1:_Suonate_da_camera_a_tr.C3.A8.2C_due_violini_e_violone_o_cembalo Information about Vivaldi Op. 1 on the CCARH wiki
!!!URL-pdf: https://pdf.musedata.org/vivaldi-op01-no09.pdf#page=2 MuseData edition
!!!URL-pdf: https://s9.imslp.org/files/imglnks/usimg/1/18/IMSLP280399-PMLP10351-Vivaldi_Sonatas_Op_1_-_Violino_Primo.pdf#page=14 Violino primo part, Amsterdam: Estienne Roger, n.d.(ca.1723). Plate 363.
!!!URL-pdf: https://s9.imslp.org/files/imglnks/usimg/d/d5/IMSLP280400-PMLP10351-Vivaldi_Sonatas_Op_1_-_Violino_Secondo.pdf#page=12 Violino secondo part, Amsterdam: Estienne Roger, n.d.(ca.1723). Plate 363.
!!!URL-pdf: https://s9.imslp.org/files/imglnks/usimg/8/89/IMSLP280401-PMLP10351-Vivaldi_Sonatas_Op_1_-_Organo_e_Violoncello.pdf#page=13 Organo e Violoncello parts, Amsterdam: Estienne Roger, n.d.(ca.1723). Plate 363.
!!!URL-youtube: https://www.youtube.com/watch?v=P5HHPe_W6Uo&t=2649s L'Arte dell'Arco
!!!title: @{OTL}, mov. @{OMV}
!!!filter-vcross: vcross
!!!EEV: 2024/05/11
!!!source-file: https://bitbucket.org/musedata/vivaldi/src/master/roger/op1/no09/stage2/02/01
!!!source-file: https://bitbucket.org/musedata/vivaldi/src/master/roger/op1/no09/stage2/02/02
!!!source-file: https://bitbucket.org/musedata/vivaldi/src/master/roger/op1/no09/stage2/02/03
!!!source-file: https://bitbucket.org/musedata/vivaldi/src/master/roger/op1/no09/stage2/02/04
